website/docs/public/gqloom.svg

<svg xmlns="http://www.w3.org/2000/svg" xmlns:xlink="http://www.w3.org/1999/xlink" fill="none" version="1.1" width="360" height="360" viewBox="0 0 360 360"><defs><clipPath id="master_svg0_10_0855"><rect x="0" y="0" width="360" height="360" rx="0"/></clipPath></defs><g clip-path="url(#master_svg0_10_0855)"><g transform="matrix(0.952150821685791,0.3056286573410034,-0.3056286573410034,0.952150821685791,41.074554988643285,-12.356591382437273)"><path d="M189.50207247924806,140.93216103515624Q253.83607247924806,141.41096103515625,313.6810724792481,132.76991103515624L312.25207247924806,122.87255103515625Q253.15507247924805,131.40565103515624,189.57707247924805,130.93239103515626Q125.99847247924805,130.45911103515624,60.787286479248046,120.06242103515625L59.21285847924805,129.93770103515624Q125.16917247924805,140.45326103515626,189.50207247924806,140.93216103515624Z" fill-rule="evenodd" fill="#3068B7" fill-opacity="1"/></g><g transform="matrix(0.999867856502533,-1.2434351326362503e-9,-5.479718456768978e-9,0.9998677968978882,0.007929956411743433,0.03238983462352962)"><path d="M300.03203051757816,250L60.000030517578125,250L60.000030517578125,240L300.03203051757816,240L300.03203051757816,250Z" fill-rule="evenodd" fill="#23C8D2" fill-opacity="1"/></g><g transform="matrix(0.952150821685791,0.3056286573410034,-0.3056286573410034,0.952150821685791,46.0656293410575,-13.127584363943242)"><path d="M191.00490100097656,160.79568232421875Q238.56190100097658,157.67048232421874,312.6229010009765,145.48808232421874L310.9999010009766,135.62068232421876Q237.41990100097655,147.72394232421874,190.34890100097658,150.81718232421875Q143.26710100097657,153.91128232421875,65.09428700097656,151.77808232421876L64.82151500097656,161.77438232421875Q143.45920100097658,163.92018232421876,191.00490100097656,160.79568232421875Z" fill-rule="evenodd" fill="#FBBF24" fill-opacity="1"/></g><g transform="matrix(0.952150821685791,0.3056286573410034,-0.3056286573410034,0.952150821685791,49.97136514719023,-14.338477480239817)"><path d="M193.1869541015625,179.78964638671874Q219.8909541015625,177.05274638671875,312.5609541015625,157.31282638671874L310.4779541015625,147.53226638671876Q218.3359541015625,167.15984638671875,192.1669541015625,169.84174638671874L70.2529091015625,182.71504638671874L71.3029991015625,192.65974638671875L193.1869541015625,179.78964638671874Z" fill-rule="evenodd" fill="#CA5BF2" fill-opacity="1"/></g><g transform="matrix(0.952150821685791,0.3056286573410034,-0.3056286573410034,0.952150821685791,53.87710168344347,-15.549375260059605)"><path d="M195.7130224609375,198.71641044921876Q219.9270224609375,193.58321044921874,312.5040224609375,169.12485044921874L309.9500224609375,159.45657044921876Q217.6110224609375,183.85191044921874,193.6400224609375,188.93381044921875L75.5713524609375,213.70511044921875L77.6246924609375,223.49201044921875L195.7130224609375,198.71641044921876Z" fill-rule="evenodd" fill="#F5775B" fill-opacity="1"/></g><g><path d="M312.502,110.4282Q312.502,110.0354,312.476,109.6434Q312.451,109.2514,312.399,108.8619Q312.348,108.4724,312.271,108.0871Q312.195,107.7018,312.093,107.3224Q311.991,106.9429,311.865,106.5709Q311.739,106.1989,311.588,105.836Q311.438,105.4731,311.264,105.1207Q311.091,104.7684,310.894,104.4282Q310.698,104.088,310.48,103.7614Q310.261,103.4347,310.022,103.1231Q309.783,102.8114,309.524,102.5161Q309.265,102.2207,308.987,101.9429Q308.709,101.6651,308.414,101.4061Q308.119,101.1471,307.807,100.908Q307.495,100.6688,307.169,100.4506Q306.842,100.2323,306.502,100.0359L186,30.464100000000002Q185.66,30.26768,185.307,30.09393Q184.955,29.920189999999998,184.592,29.769849999999998Q184.229,29.61952,183.857,29.49325Q183.485,29.36697,183.106,29.2653Q182.726,29.16362,182.341,29.08698Q181.956,29.01034,181.566,28.95907Q181.177,28.90779,180.785,28.8821Q180.393,28.85641,180,28.85641Q179.607,28.85641,179.215,28.8821Q178.823,28.90779,178.434,28.95907Q178.044,29.01034,177.659,29.08698Q177.274,29.16362,176.894,29.2653Q176.515,29.36697,176.143,29.49325Q175.771,29.61952,175.408,29.769849999999998Q175.045,29.920189999999998,174.693,30.09393Q174.34,30.26768,174,30.464100000000002L53.4981,100.0359Q53.1579,100.2323,52.8313,100.4506Q52.504599999999996,100.6688,52.193,100.908Q51.881299999999996,101.1471,51.586,101.4061Q51.2906,101.6652,51.0128,101.9429Q50.7351,102.2207,50.476,102.5161Q50.217,102.8114,49.977900000000005,103.1231Q49.7387,103.4347,49.5205,103.7614Q49.3022,104.088,49.1058,104.4282Q48.909400000000005,104.7684,48.735600000000005,105.1208Q48.5619,105.4731,48.4116,105.836Q48.2612,106.199,48.1349,106.5709Q48.008700000000005,106.9429,47.907,107.3224Q47.8053,107.7018,47.7287,108.0871Q47.652,108.4724,47.6008,108.8619Q47.549499999999995,109.2514,47.5238,109.6434Q47.4981,110.0354,47.4981,110.4282L47.4981,249.572Q47.4981,249.965,47.5238,250.357Q47.549499999999995,250.749,47.6008,251.138Q47.652100000000004,251.528,47.7287,251.913Q47.8053,252.298,47.907,252.678Q48.008700000000005,253.057,48.135000000000005,253.429Q48.2612,253.801,48.4116,254.164Q48.5619,254.527,48.735600000000005,254.879Q48.909400000000005,255.232,49.1058,255.572Q49.3022,255.912,49.5205,256.23900000000003Q49.7387,256.565,49.977900000000005,256.877Q50.217,257.18899999999996,50.476,257.48400000000004Q50.7351,257.779,51.0128,258.057Q51.2906,258.33500000000004,51.586,258.594Q51.881299999999996,258.853,52.193,259.092Q52.504599999999996,259.331,52.8313,259.549Q53.1579,259.76800000000003,53.4981,259.964L174,329.536Q174.34,329.732,174.693,329.906Q175.045,330.08,175.408,330.23Q175.771,330.38,176.143,330.507Q176.515,330.633,176.894,330.735Q177.274,330.836,177.659,330.913Q178.044,330.99,178.434,331.041Q178.823,331.092,179.215,331.118Q179.607,331.144,180,331.144Q180.393,331.144,180.785,331.118Q181.177,331.092,181.566,331.041Q181.956,330.99,182.341,330.913Q182.726,330.836,183.106,330.735Q183.485,330.633,183.857,330.507Q184.229,330.38,184.592,330.23Q184.955,330.08,185.307,329.906Q185.66,329.732,186,329.536L306.502,259.964Q306.842,259.76800000000003,307.169,259.549Q307.495,259.331,307.807,259.092Q308.119,258.853,308.414,258.594Q308.709,258.33500000000004,308.987,258.057Q309.265,257.779,309.524,257.48400000000004Q309.783,257.18899999999996,310.022,256.877Q310.261,256.565,310.48,256.23900000000003Q310.698,255.912,310.894,255.572Q311.091,255.232,311.264,254.879Q311.438,254.527,311.588,254.164Q311.739,253.801,311.865,253.429Q311.991,253.057,312.093,252.678Q312.195,252.298,312.271,251.913Q312.348,251.528,312.399,251.138Q312.451,250.749,312.476,250.357Q312.502,249.965,312.502,249.572L312.502,110.4282ZM296.502,112.7376L180,45.4752L63.4981,112.7376L63.4981,247.262L180,314.525L296.502,247.262L296.502,112.7376Z" fill-rule="evenodd" fill="#C12E8C" fill-opacity="1"/></g><g><ellipse cx="180" cy="44" rx="24" ry="24" fill="#C12E8C" fill-opacity="1"/></g><g><ellipse cx="180" cy="314" rx="24" ry="24" fill="#C12E8C" fill-opacity="1"/></g><g><ellipse cx="61" cy="250" rx="24" ry="24" fill="#C12E8C" fill-opacity="1"/></g><g><ellipse cx="304" cy="250" rx="24" ry="24" fill="#C12E8C" fill-opacity="1"/></g><g><ellipse cx="61" cy="108" rx="24" ry="24" fill="#C12E8C" fill-opacity="1"/></g><g><ellipse cx="304" cy="108" rx="24" ry="24" fill="#C12E8C" fill-opacity="1"/></g></g></svg>

<svg xmlns="http://www.w3.org/2000/svg" fill="none" viewBox="0 0 360 360"><defs><clipPath id="a"><rect width="360" height="360" rx="0"/></clipPath></defs><g clip-path="url(#a)"><path fill="#3068B7" fill-rule="evenodd" d="M178.44 179.75q61.1 20.12 120.73 30.18l1.66-9.86q-58.87-9.94-119.27-29.82-60.39-19.88-119.3-49.71l-4.52 8.92q59.59 30.17 120.7 50.29Z"/><path fill="#23C8D2" fill-rule="evenodd" d="M300 250H60v-10h240v10Z"/><path fill="#FBBF24" fill-rule="evenodd" d="M178.79 198.35q46.23 11.56 120.47 22.6l1.47-9.9q-73.75-10.96-119.52-22.4-45.77-11.44-119.55-37.37l-3.32 9.44q74.22 26.07 120.45 37.63Z"/><path fill="#CA5BF2" fill-rule="evenodd" d="M178.97 215.9q26.26 5.55 120.53 15.07l1-9.94q-93.73-9.48-119.47-14.92l-120.01-25-2.04 9.78 119.99 25Z"/><path fill="#F5775B" fill-rule="evenodd" d="M179.5 233.47Q204.11 236 299.73 241l.52-9.98q-95.37-5-119.75-7.48l-120-12.5-1.03 9.94 120.01 12.5Z"/><path fill="#C12E8C" fill-rule="evenodd" d="M312.5 110.43q0-.4-.02-.79l-.08-.78q-.05-.39-.13-.77-.07-.39-.18-.77-.1-.38-.22-.75-.13-.37-.28-.73-.15-.37-.33-.72-.17-.35-.37-.7l-.41-.66q-.22-.33-.46-.64l-.5-.6q-.25-.3-.53-.58-.28-.27-.58-.53l-.6-.5q-.31-.24-.64-.46-.33-.22-.67-.41L186 30.46q-.34-.2-.7-.37-.34-.17-.7-.32l-.74-.28-.75-.22q-.38-.1-.77-.18-.38-.08-.77-.13l-.78-.08-.79-.02q-.4 0-.78.02-.4.03-.79.08t-.77.13q-.39.07-.77.18-.38.1-.75.22-.37.13-.73.28-.37.15-.72.32l-.69.37-120.5 69.58-.67.41q-.33.22-.64.46l-.6.5q-.3.26-.58.53-.27.28-.53.58l-.5.6q-.24.31-.46.64-.22.33-.41.67-.2.34-.37.7-.18.34-.33.7l-.28.74q-.12.37-.22.75t-.18.77q-.08.38-.13.77l-.08.78-.02.79v139.14q0 .4.02.79l.08.78q.05.39.13.77.08.39.18.77.1.38.23.75.12.37.27.73.15.37.33.72.17.35.37.7l.41.66.46.64.5.6q.26.3.53.58.28.28.58.53l.6.5q.31.24.64.46.33.22.67.41L174 329.54q.34.2.7.37.34.17.7.32l.74.28.75.23q.38.1.77.17.38.08.77.13l.78.08.79.02q.4 0 .78-.02.4-.03.79-.08t.77-.13q.39-.07.77-.18.38-.1.75-.22.37-.13.73-.28.37-.15.72-.32l.69-.37 120.5-69.58.67-.41.64-.46.6-.5q.3-.25.58-.53.27-.28.53-.58l.5-.6q.24-.31.46-.64.22-.33.41-.67.2-.34.37-.7.18-.34.33-.7l.28-.74q.12-.37.22-.75t.18-.77q.08-.38.13-.77l.08-.78.02-.79V110.43Zm-16 2.3L180 45.49 63.5 112.74v134.52L180 314.52l116.5-67.26V112.74Z"/><circle cx="180" cy="44" r="24" fill="#C12E8C"/><circle cx="180" cy="314" r="24" fill="#C12E8C"/><circle cx="61" cy="250" r="24" fill="#C12E8C"/><circle cx="304" cy="250" r="24" fill="#C12E8C"/><circle cx="61" cy="108" r="24" fill="#C12E8C"/><circle cx="304" cy="108" r="24" fill="#C12E8C"/></g></svg>
